!!!OTL: WAS IST DES LEBENS HOECHSTE LUST
!!!ARE: Europa, Mitteleuropa, Deutschland
!!!SCT: B0335
!!!YEM: Copyright 1995, estate of Helmut Schaffrath.
**kern
*ICvox
*Ivox
*M6/8
*k[b-]
*F:
{16f
16g
=1
4a
8a
4cc
8cc
=2
4a
8a
4f}
{8f
=3
4g
8g
8cc
8b-
8g
=4
2f
8r}
{16f
16g
=5
4a
8a
4cc
8cc
=6
4a
8a
4f}
{8f
=7
4g
8g
8cc
8b-
8g
=8
2f
8r}
{8a
=9
4g
8g
4cc
8b-
=10
4a
8cc
4ff}
{8a
=11
4g
8g
4cc
8b-
=12
4a
8cc
4ff}
{16f
16g
=13
8.a
16a
8a
8.cc
16cc
8cc
=14
8.a
16a
8a
4f}
{8f
=15
8.g
16g
8g
8cc
8b-
8g
=16
2f
8r}
==
!!!AGN: Trink - Lied
!!!ONB: ESAC (Essen Associative Code) Database: BOEHME
!!!AMT: compound duple
!!!AIN: vox
!!!EED: Helmut Schaffrath
!!!EEV: 1.0
*-
